src/svg/area/area-ayf.svg

<?xml version="1.0" encoding="UTF-8" standalone="no"?>
<!-- Generado por Andres Lacquaniti  -->

<svg
   xmlns:dc="http://purl.org/dc/elements/1.1/"
   xmlns:cc="http://creativecommons.org/ns#"
   xmlns:rdf="http://www.w3.org/1999/02/22-rdf-syntax-ns#"
   xmlns:svg="http://www.w3.org/2000/svg"
   xmlns="http://www.w3.org/2000/svg"
   xmlns:sodipodi="http://sodipodi.sourceforge.net/DTD/sodipodi-0.dtd"
   xmlns:inkscape="http://www.inkscape.org/namespaces/inkscape"
   version="1.1"
   id="Layer_1"
   x="0px"
   y="0px"
   width="15px"
   height="15px"
   viewBox="0 0 15 15"
   style="enable-background:new 0 0 15 15;"
   xml:space="preserve"
   sodipodi:docname="area-ayf.svg"
   inkscape:version="0.92.4 (5da689c313, 2019-01-14)"><metadata
     id="metadata9"><rdf:RDF><cc:Work
         rdf:about=""><dc:format>image/svg+xml</dc:format><dc:type
           rdf:resource="http://purl.org/dc/dcmitype/StillImage" /><dc:title /></cc:Work></rdf:RDF></metadata><defs
     id="defs7" /><sodipodi:namedview
     pagecolor="#ffffff"
     bordercolor="#666666"
     borderopacity="1"
     objecttolerance="10"
     gridtolerance="10"
     guidetolerance="10"
     inkscape:pageopacity="0"
     inkscape:pageshadow="2"
     inkscape:window-width="1920"
     inkscape:window-height="996"
     id="namedview5"
     showgrid="false"
     inkscape:zoom="11.125147"
     inkscape:cx="-11.875633"
     inkscape:cy="4.776083"
     inkscape:window-x="1912"
     inkscape:window-y="-8"
     inkscape:window-maximized="1"
     inkscape:current-layer="Layer_1" /><path
     style="fill:#000000;fill-opacity:1;fill-rule:nonzero;stroke:none;stroke-width:0.44300646"
     d="M 6.1255459,0.23610586 V 0.91891589 C 4.495726,1.0912449 4.300428,2.0072403 4.300428,2.4254387 c 0,0.6569785 0.4925545,1.3533927 1.8251179,1.5057878 v 0.031643 0.814515 H 5.1565151 c -0.3123194,0 -0.5643479,0.2535759 -0.5643479,0.5654521 0,0.3123194 0.2520285,0.565084 0.5643479,0.565084 H 6.1255459 V 6.6367169 H 7.255714 V 5.8766501 C 8.5873921,5.7238118 9.079729,5.0271799 9.079729,4.3697593 9.079729,3.9520042 8.8846486,3.0363768 7.255714,2.8636035 V 2.832331 2.0178148 h 0.8435793 c 0.3123194,0 0.5647159,-0.2532068 0.5647159,-0.565084 0,-0.3118762 -0.2523965,-0.56545215 -0.5647159,-0.56545215 H 7.255714 V 0.23610811 Z m 7.2585331,1.39100394 -3.4239813,2.886491 1.4568563,0.526455 -0.92893,2.5443498 C 8.6623946,7.0567858 6.9844551,7.168668 5.4901945,7.917349 2.4365509,9.4483802 1.3099846,13.086231 1.2634696,13.240397 l -0.195352,0.648228 1.2960878,0.391805 0.1975592,-0.648227 c 0.00976,-0.0319 1.0136875,-3.24302 3.5428118,-4.5055889 1.3206019,-0.6596366 2.8563685,-0.6793719 4.5637146,-0.057395 l 0.636824,0.2314044 1.387325,-3.7996014 1.478931,0.5349168 z M 6.1255459,2.0557054 V 2.7907565 C 5.6546308,2.7145555 5.42986,2.5481524 5.42986,2.4254387 5.42986,2.249565 5.6967158,2.1168412 6.1255459,2.0557054 Z M 7.255714,4.0003896 c 0.4288301,0.061132 0.6945829,0.194378 0.6945829,0.3693652 0,0.1231558 -0.2236667,0.2894142 -0.6945829,0.3660539 z"
     id="path5784"
     inkscape:connector-curvature="0" /></svg>

<svg width="15px" height="15px" enable-background="new 0 0 15 15" version="1.1" viewBox="0 0 15 15" xmlns="http://www.w3.org/2000/svg">
 <path d="m6.1255 0.23611v0.68281c-1.6298 0.17233-1.8251 1.0883-1.8251 1.5065 0 0.65698 0.49255 1.3534 1.8251 1.5058v0.84616h-0.96903c-0.31232 0-0.56435 0.25358-0.56435 0.56545 0 0.31232 0.25203 0.56508 0.56435 0.56508h0.96903v0.7288h1.1302v-0.76007c1.3317-0.15284 1.824-0.84947 1.824-1.5069 0-0.41776-0.19508-1.3334-1.824-1.5062v-0.84579h0.84358c0.31232 0 0.56472-0.25321 0.56472-0.56508 0-0.31188-0.2524-0.56545-0.56472-0.56545h-0.84358v-0.65117zm7.2585 1.391-3.424 2.8865 1.4569 0.52646-0.92893 2.5443c-1.8256-0.52762-3.5036-0.41574-4.9978 0.33294-3.0536 1.531-4.1802 5.1689-4.2267 5.323l-0.19535 0.64823 1.2961 0.3918 0.19756-0.64823c0.00976-0.0319 1.0137-3.243 3.5428-4.5056 1.3206-0.65964 2.8564-0.67937 4.5637-0.057395l0.63682 0.2314 1.3873-3.7996 1.4789 0.53492zm-7.2585 0.4286v0.73505c-0.47092-0.076201-0.69569-0.2426-0.69569-0.36532 0-0.17587 0.26686-0.3086 0.69569-0.36973zm1.1302 1.9447c0.42883 0.061132 0.69458 0.19438 0.69458 0.36937 0 0.12316-0.22367 0.28941-0.69458 0.36605z"/>
</svg>
